logos/tux.svg

<svg viewBox="0 0 382 444" xmlns="http://www.w3.org/2000/svg">
<path class="only-light-background" d="m 165.86,108.31 c -4.52,0.48 -2.96,4.64 -5.48,4.73 -2.48,0.1 -1.97,-5.29 5.48,-4.73 z m 13.62,0.69 c 4.4,-1.13 4.43,3.3 6.83,2.49 2.33,-0.78 0,-5.62 -6.83,-2.49 z m 151.61,290.09 c -13.59,6.83 -31.31,22.01 -37.94,28.3 -4.88,4.66 -25.3,6.98 -36.64,1.14 -13.44,-6.92 -6.31,-17.73 -27.07,-18.24 -10.32,-0.24 -20.35,-0.33 -30.41,-0.21 -8.89,0.12 -17.78,0.39 -26.85,0.87 -31.17,0.27 -34.22,20.65 -54.08,19.91 -13.59,-0.51 -30.737,-11.23 -60.187,-17.4 -20.7,-4.31 -40.566,-5.33 -44.822,-14.49 -4.2493,-9.13 5.243,-19.36 5.875,-28.46 0.775,-11.87 -8.9862,-28 -1.771,-34.25 5.958,-5.18 19.008,-1.38 27.428,-6.08 8.95,-4.97 12.54,-9.1 12.54,-20 3.29,11.13 -0.15,20.36 -7.55,24.88 -4.4,2.66 -12.58,4.07 -19.303,3.38 -5.326,-0.5 -8.625,0.36 -10.244,2.39 -2.064,2.64 -1.401,7.25 1.197,13.39 2.614,6.13 5.755,10.03 5.333,17.54 -0.422,7.52 -8.685,16.44 -7.366,22.76 0.512,2.43 2.899,4.45 8.624,6.07 9.489,2.67 26.429,5.09 43.149,9.16 18.58,4.56 37.757,13.15 49.687,11.5 35.65,-4.97 15.32,-43.2 9.55,-52.29 -30.09,-47.38 -49.987,-78.39 -65.917,-66.08 -4.16,3.2 -4.32,-8.06 -4.14,-12.4 0.69,-15.56 8.6,-21.01 13.3,-33.13 8.79,-22.7 15.65,-48.69 29.267,-62.13 10.13,-12.96 25.93,-34.3 28.96,-45.56 -2.55,-24.49 -3.33,-50.263 -3.72,-72.843 -0.39,-24.01 3.42,-45.078 30.53,-59.811 6.62,-3.593 15.21,-4.911 24.32,-5.001 16.28,-0.181 34.24,4.376 45.71,12.88 18.29,13.558 29.78,42.412 28.44,63.162 -1.08,15.983 1.8,32.723 6.92,49.943 6.13,20.44 15.83,34.81 31.24,51.16 18.58,19.69 33.03,58.5 37.1,83.08 3.83,22.96 -1.16,37.15 -6.2,37.86 -7.5,1.11 -12.18,24.94 -35.68,23.83 -15,-0.72 -16.47,-9.58 -20.62,-17.12 -6.69,-12.07 -13.48,-8.3 -16.21,4.28 -1.41,6.43 -0.38,15.66 1.68,22.84 4.19,14.7 2.75,28.65 0.25,45.56 -4.8,32.46 22.68,38.6 41.22,23.17 18.29,-15.23 22.21,-17.65 45.35,-25.55 34.91,-11.96 23.18,-22.53 4.41,-28.84 -16.83,-5.66 -17.52,-34.09 -11.5,-39.45 1.35,30.53 17.24,34.96 23.98,39.13 28.88,17.92 -10.91,32.62 -27.84,41.15 z m -77.73,-89.44 c 3.18,-3.78 6.92,-4.2 11.86,-4.29 0.75,-18.61 29.73,-17.24 39.22,-9.45 0,-4.32 -9.11,-8.18 -12.75,-10.01 6.31,-21.01 3.35,-29.45 -0.84,-49.3 -3.18,-15.15 -16.98,-35.53 -27.79,-41.91 2.73,2.39 7.91,9.34 13.39,19.54 9.43,17.55 18.74,43.5 12.54,65.29 -2.39,8.33 -7.84,9.38 -11.59,9.8 -16.61,1.73 -6.84,-19.64 -13.74,-49.08 -7.69,-32.72 -15.56,-35.17 -17.54,-37.74 -9.53,-42.57 -20.12,-38.32 -23.11,-54.4 -2.69,-14.22 12.39,-25.98 -8.12,-29.96 -6.25,-1.23 -15.2,-7.57 -18.77,-8.02 -3.53,-0.49 -5.26,-23.483 7.7,-24.413 12.96,-0.96 15.44,14.643 12.9,20.783 -3.69,6.08 0.27,8.36 6.68,6.38 5.24,-1.62 1.86,-15.273 3.11,-17.303 -3.38,-19.55 -11.55,-22.37 -20.05,-24.01 -32.28,2.48 -17.79,38.233 -21.06,34.783 -4.57,-4.85 -18.31,-0.27 -18.25,-3.38 0.3,-18.233 -5.81,-28.803 -14.23,-29.013 -9.37,-0.28 -13.23,12.85 -13.8,20.23 -0.53,7.103 4.22,21.893 7.69,20.763 2.28,-0.76 6.17,-5.33 2.01,-5.31 -2.16,0 -5.41,-5.02 -5.75,-11.173 -0.32,-6.13 1.92,-12.3 9.88,-11.97 9.34,0.36 9.25,18.603 8.24,19.313 -2.99,2.07 -6.83,6.09 -7.24,6.77 -2.97,4.97 -8.93,6.2 -11.11,8.38 -4.16,4.16 -5,8.86 -1.89,10.66 10.69,6.13 7.21,12.96 22.16,13.59 9.81,0.38 17.2,-1.53 23.88,-3.57 5.21,-1.57 21.92,-5.14 25.45,-11.28 1.53,-2.6 3.45,-2.69 4.73,-1.95 2.24,1.3 2.72,5.64 -3.05,7.19 -8.27,2.25 -16.61,6.65 -23.93,9.58 -7.3,2.96 -9.63,4.1 -16.52,5.36 -15.51,2.78 -26.97,-5.6 -16.56,4.46 3.45,3.36 6.77,5.45 15.7,5.09 19.55,-0.78 41.45,-24.25 43.61,-13.74 0.45,2.15 -6.19,5.08 -11.37,7.66 -18.33,9.02 -31.23,26.82 -42.97,20.66 -10.5,-5.54 -20.94,-31.58 -20.76,-19.91 0.29,17.99 -23.72,34 -12.67,54.48 -7.16,1.95 -23.48,36.38 -25.82,54.3 -1.28,10.16 0.98,22.91 -1.46,30.04 -3.527,10.29 -19.567,-9.82 -14.447,-34.47 0.92,-4.33 0.14,-5.25 -1.02,-3.16 -6.52,11.53 -2.94,27.6 2.21,38.88 2.25,4.88 7.51,7.04 11.41,11.38 8.397,9.4 40.567,33.26 46.397,38.98 7.06,6.94 5.08,22.87 -9.94,24.39 7.7,14.53 15.2,15.9 15.09,39.65 8.71,-4.68 5.2,-14.91 1.56,-21.65 -2.55,-4.61 -5.88,-6.7 -5.15,-7.78 0.54,-0.81 5.02,-4.67 7.72,-1.65 7.93,8.89 22.9,10.48 39.01,8.48 16.07,-2.05 33.31,-7.67 41.28,-20.48 3.74,-6.02 6.44,-8.15 8.17,-7.09 1.71,1.07 2.45,5.32 2.27,12.14 -0.2,7.58 -3.37,15.45 -5.35,21.74 -2.22,7.13 -2.9,12.18 4.04,12.45 2.06,-13.17 5.69,-26.13 6.73,-39.24 1.17,-14.91 -9.63,-42.66 2.01,-56.49 z M 154.84,97.957 c -0.54,2.933 -0.33,4.763 1.71,4.763 0.33,0 0.68,-0.1 0.81,-0.81 0.98,-5.843 -2.04,-10.083 -3.27,-10.423 -2.87,-0.72 -2.51,3.38 -1.02,3.06 0.91,-0.19 2.13,1.31 1.77,3.41 z m 53.06,-8.03 c -2.94,0.28 -2.1,1.74 -0.64,2.16 1.92,0.57 3.72,3.82 4.13,7.37 0,0.32 2.46,-0.52 2.46,-1.29 0.18,-5.67 -4.67,-8.35 -5.95,-8.24 z"></path>
<path class="only-dark-background" style="display:none" d="M 184.24 3.8945 C 181.38 3.8525 178.54 3.9125 175.74 4.0664 C 148.24 5.9002 124.05 29.206 120.91 56.57 C 118.39 78.604 120.73 100.88 121.37 122.98 C 121.11 132.32 124.2 141.98 122.41 151.05 C 113.43 169.48 99.541 184.81 87.746 201.35 C 74.438 223.22 70.512 249.39 56.961 271.13 C 51.934 280.89 50.503 292.61 53.199 303.24 C 45.898 306.89 51.624 318.09 43.375 321.16 C 33.432 328.14 17.832 321.26 9.8711 332.31 C 0.83265 344.49 12.098 358.83 10.324 371.96 C 6.087 382.59 -0.6659 396.1 8.2676 406.32 C 19.611 417.87 37.335 417.07 52.092 420.79 C 73.429 423.98 92.806 434.42 113.81 438.66 C 127.92 441.46 139.86 432.33 150.69 424.77 C 165.77 416.49 183.66 419.78 200.14 418.35 C 212.35 419.05 224.92 417.15 236.88 419.88 C 242.38 426.07 246.64 434.41 255.35 436.95 C 269.15 441.84 286.25 442.05 298.67 433.54 C 314.13 418.88 331.87 406.76 351.48 398.36 C 362.8 392.24 378.14 384.12 377.25 369.12 C 375.69 355.77 361.61 351.03 352.41 343.93 C 343.91 336.7 344.86 324.77 342.01 315.13 C 335.91 311.45 338.02 308.38 340.28 302.27 C 345.42 275.34 335.79 248.27 325.82 223.59 C 317.97 204.14 305.44 187.16 291.12 172 C 273.88 150.97 266.35 123.55 265.19 96.785 C 267.28 70.34 258.66 42.756 239.79 23.781 C 225.32 9.5607 204.27 4.1921 184.24 3.8945 z M 182.84 12.006 C 199.12 11.825 217.08 16.381 228.55 24.885 C 246.84 38.443 258.33 67.297 256.99 88.047 C 255.91 104.03 258.79 120.77 263.91 137.99 C 270.04 158.43 279.74 172.8 295.15 189.15 C 313.73 208.84 328.18 247.65 332.25 272.23 C 336.08 295.19 331.09 309.38 326.05 310.09 C 318.55 311.2 313.87 335.03 290.37 333.92 C 275.37 333.2 273.9 324.34 269.75 316.8 C 263.06 304.73 256.27 308.5 253.54 321.08 C 252.13 327.51 253.16 336.74 255.22 343.92 C 259.41 358.62 257.97 372.57 255.47 389.48 C 250.67 421.94 278.15 428.08 296.69 412.65 C 314.98 397.42 318.9 395 342.04 387.1 C 376.95 375.14 365.22 364.57 346.45 358.26 C 329.62 352.6 328.93 324.17 334.95 318.81 C 336.3 349.34 352.19 353.77 358.93 357.94 C 387.81 375.86 348.02 390.56 331.09 399.09 C 317.5 405.92 299.78 421.1 293.15 427.39 C 288.27 432.05 267.85 434.37 256.51 428.53 C 243.07 421.61 250.2 410.8 229.44 410.29 C 219.12 410.05 209.09 409.96 199.03 410.08 C 190.14 410.2 181.25 410.47 172.18 410.95 C 141.01 411.22 137.96 431.6 118.1 430.86 C 104.51 430.35 87.362 419.63 57.912 413.46 C 37.212 409.15 17.348 408.13 13.092 398.97 C 8.8425 389.84 18.335 379.61 18.967 370.51 C 19.742 358.64 9.9801 342.51 17.195 336.26 C 23.153 331.08 36.203 334.88 44.623 330.18 C 53.573 325.21 57.162 321.08 57.162 310.18 C 60.452 321.31 57.013 330.54 49.613 335.06 C 45.213 337.72 37.034 339.13 30.311 338.44 C 24.985 337.94 21.685 338.8 20.066 340.83 C 18.002 343.47 18.666 348.08 21.264 354.22 C 23.878 360.35 27.018 364.25 26.596 371.76 C 26.174 379.28 17.911 388.2 19.23 394.52 C 19.742 396.95 22.129 398.97 27.854 400.59 C 37.343 403.26 54.284 405.68 71.004 409.75 C 89.584 414.31 108.76 422.9 120.69 421.25 C 156.34 416.28 136.01 378.05 130.24 368.96 C 100.15 321.58 80.252 290.57 64.322 302.88 C 60.162 306.08 60.004 294.82 60.184 290.48 C 60.874 274.92 68.782 269.47 73.482 257.35 C 82.272 234.65 89.133 208.66 102.75 195.22 C 112.88 182.26 128.68 160.92 131.71 149.66 C 129.16 125.17 128.38 99.396 127.99 76.816 C 127.6 52.806 131.41 31.739 158.52 17.006 C 165.14 13.413 173.73 12.096 182.84 12.006 z M 206.46 71.557 C 174.18 74.037 188.67 109.79 185.4 106.34 C 180.83 101.49 167.09 106.07 167.15 102.96 C 167.45 84.728 161.34 74.157 152.92 73.947 C 143.55 73.667 139.69 86.798 139.12 94.178 C 138.59 101.28 143.34 116.07 146.81 114.94 C 149.09 114.18 152.98 109.61 148.82 109.63 C 146.66 109.63 143.41 104.61 143.07 98.457 C 142.75 92.327 144.99 86.156 152.95 86.486 C 162.29 86.846 162.2 105.09 161.19 105.8 C 158.2 107.87 154.36 111.89 153.95 112.57 C 150.98 117.54 145.02 118.77 142.84 120.95 C 138.68 125.11 137.84 129.81 140.95 131.61 C 151.64 137.74 148.16 144.57 163.11 145.2 C 172.92 145.58 180.31 143.67 186.99 141.63 C 192.2 140.06 208.91 136.49 212.44 130.35 C 213.97 127.75 215.89 127.66 217.17 128.4 C 219.41 129.7 219.89 134.04 214.12 135.59 C 205.85 137.84 197.51 142.24 190.19 145.17 C 182.89 148.13 180.56 149.27 173.67 150.53 C 158.16 153.31 146.7 144.93 157.11 154.99 C 160.56 158.35 163.88 160.44 172.81 160.08 C 192.36 159.3 214.26 135.83 216.42 146.34 C 216.87 148.49 210.23 151.42 205.05 154 C 186.72 163.02 173.82 180.82 162.08 174.66 C 151.58 169.12 141.14 143.08 141.32 154.75 C 141.61 172.74 117.6 188.75 128.65 209.23 C 121.49 211.18 105.17 245.61 102.83 263.53 C 101.55 273.69 103.81 286.44 101.37 293.57 C 97.842 303.86 81.804 283.75 86.924 259.1 C 87.844 254.77 87.062 253.85 85.902 255.94 C 79.382 267.47 82.963 283.54 88.113 294.82 C 90.363 299.7 95.623 301.86 99.523 306.2 C 107.92 315.6 140.09 339.46 145.92 345.18 C 152.98 352.12 151 368.05 135.98 369.57 C 143.68 384.1 151.18 385.47 151.07 409.22 C 159.78 404.54 156.27 394.31 152.63 387.57 C 150.08 382.96 146.75 380.87 147.48 379.79 C 148.02 378.98 152.5 375.12 155.2 378.14 C 163.13 387.03 178.1 388.62 194.21 386.62 C 210.28 384.57 227.52 378.95 235.49 366.14 C 239.23 360.12 241.93 357.99 243.66 359.05 C 245.37 360.12 246.11 364.37 245.93 371.19 C 245.73 378.77 242.56 386.64 240.58 392.93 C 238.36 400.06 237.68 405.11 244.62 405.38 C 246.68 392.21 250.31 379.25 251.35 366.14 C 252.52 351.23 241.72 323.48 253.36 309.65 C 256.54 305.87 260.28 305.45 265.22 305.36 C 265.97 286.75 294.95 288.12 304.44 295.91 C 304.44 291.59 295.33 287.73 291.69 285.9 C 298 264.89 295.04 256.45 290.85 236.6 C 287.67 221.45 273.87 201.07 263.06 194.69 C 265.79 197.08 270.97 204.03 276.45 214.23 C 285.88 231.78 295.19 257.73 288.99 279.52 C 286.6 287.85 281.15 288.9 277.4 289.32 C 260.79 291.05 270.56 269.68 263.66 240.24 C 255.97 207.52 248.1 205.07 246.12 202.5 C 236.59 159.93 226 164.18 223.01 148.1 C 220.32 133.88 235.4 122.12 214.89 118.14 C 208.64 116.91 199.69 110.57 196.12 110.12 C 192.59 109.63 190.86 86.637 203.82 85.707 C 216.78 84.747 219.26 100.35 216.72 106.49 C 213.03 112.57 216.99 114.85 223.4 112.87 C 228.64 111.25 225.26 97.596 226.51 95.566 C 223.13 76.016 214.96 73.197 206.46 71.557 z M 207.9 89.928 C 204.96 90.208 205.8 91.668 207.26 92.088 C 209.18 92.658 210.98 95.907 211.39 99.457 C 211.39 99.777 213.85 98.938 213.85 98.168 C 214.03 92.498 209.18 89.818 207.9 89.928 z M 153.59 91.406 C 151.27 91.262 151.67 94.847 153.07 94.547 C 153.98 94.357 155.2 95.857 154.84 97.957 C 154.3 100.89 154.51 102.72 156.55 102.72 C 156.88 102.72 157.23 102.62 157.36 101.91 C 158.34 96.067 155.32 91.826 154.09 91.486 C 153.91 91.441 153.74 91.416 153.59 91.406 z M 183.76 107.96 C 187.18 108.04 188.06 110.91 186.31 111.49 C 183.91 112.3 183.88 107.87 179.48 109 C 181.19 108.22 182.61 107.93 183.76 107.96 z M 164.54 108.27 C 164.96 108.26 165.39 108.28 165.86 108.31 C 161.34 108.79 162.9 112.95 160.38 113.04 C 158.06 113.13 158.36 108.4 164.54 108.27 z "></path>
</svg>

<svg viewBox="0 0 382 444" xmlns="http://www.w3.org/2000/svg"><path class="only-light-background" d="M165.86 108.31c-4.52.48-2.96 4.64-5.48 4.73-2.48.1-1.97-5.29 5.48-4.73zm13.62.69c4.4-1.13 4.43 3.3 6.83 2.49 2.33-.78 0-5.62-6.83-2.49zm151.61 290.09c-13.59 6.83-31.31 22.01-37.94 28.3-4.88 4.66-25.3 6.98-36.64 1.14-13.44-6.92-6.31-17.73-27.07-18.24-10.32-.24-20.35-.33-30.41-.21-8.89.12-17.78.39-26.85.87-31.17.27-34.22 20.65-54.08 19.91-13.59-.51-30.737-11.23-60.187-17.4-20.7-4.31-40.566-5.33-44.822-14.49-4.248-9.13 5.244-19.36 5.876-28.46.775-11.87-8.986-28-1.77-34.25 5.957-5.18 19.007-1.38 27.427-6.08 8.95-4.97 12.54-9.1 12.54-20 3.29 11.13-.15 20.36-7.55 24.88-4.4 2.66-12.58 4.07-19.303 3.38-5.326-.5-8.625.36-10.244 2.39-2.064 2.64-1.4 7.25 1.197 13.39 2.614 6.13 5.755 10.03 5.333 17.54-.422 7.52-8.685 16.44-7.366 22.76.512 2.43 2.9 4.45 8.624 6.07 9.49 2.67 26.43 5.09 43.15 9.16 18.58 4.56 37.756 13.15 49.686 11.5 35.65-4.97 15.32-43.2 9.55-52.29-30.09-47.38-49.987-78.39-65.917-66.08-4.16 3.2-4.32-8.06-4.14-12.4.69-15.56 8.6-21.01 13.3-33.13 8.79-22.7 15.65-48.69 29.267-62.13 10.13-12.96 25.93-34.3 28.96-45.56-2.55-24.49-3.33-50.263-3.72-72.843-.39-24.01 3.42-45.078 30.53-59.81 6.62-3.594 15.21-4.912 24.32-5.002 16.28-.18 34.24 4.376 45.71 12.88 18.29 13.558 29.78 42.412 28.44 63.162-1.08 15.983 1.8 32.723 6.92 49.943 6.13 20.44 15.83 34.81 31.24 51.16 18.58 19.69 33.03 58.5 37.1 83.08 3.83 22.96-1.16 37.15-6.2 37.86-7.5 1.11-12.18 24.94-35.68 23.83-15-.72-16.47-9.58-20.62-17.12-6.69-12.07-13.48-8.3-16.21 4.28-1.41 6.43-.38 15.66 1.68 22.84 4.19 14.7 2.75 28.65.25 45.56-4.8 32.46 22.68 38.6 41.22 23.17 18.29-15.23 22.21-17.65 45.35-25.55 34.91-11.96 23.18-22.53 4.41-28.84-16.83-5.66-17.52-34.09-11.5-39.45 1.35 30.53 17.24 34.96 23.98 39.13 28.88 17.92-10.91 32.62-27.84 41.15zm-77.73-89.44c3.18-3.78 6.92-4.2 11.86-4.29.75-18.61 29.73-17.24 39.22-9.45 0-4.32-9.11-8.18-12.75-10.01 6.31-21.01 3.35-29.45-.84-49.3-3.18-15.15-16.98-35.53-27.79-41.91 2.73 2.39 7.91 9.34 13.39 19.54 9.43 17.55 18.74 43.5 12.54 65.29-2.39 8.33-7.84 9.38-11.59 9.8-16.61 1.73-6.84-19.64-13.74-49.08-7.69-32.72-15.56-35.17-17.54-37.74-9.53-42.57-20.12-38.32-23.11-54.4-2.69-14.22 12.39-25.98-8.12-29.96-6.25-1.23-15.2-7.57-18.77-8.02-3.53-.49-5.26-23.483 7.7-24.413 12.96-.96 15.44 14.643 12.9 20.783-3.69 6.08.27 8.36 6.68 6.38 5.24-1.62 1.86-15.273 3.11-17.303-3.38-19.55-11.55-22.37-20.05-24.01-32.28 2.48-17.79 38.233-21.06 34.783-4.57-4.85-18.31-.27-18.25-3.38.3-18.233-5.81-28.803-14.23-29.013-9.37-.28-13.23 12.85-13.8 20.23-.53 7.103 4.22 21.893 7.69 20.763 2.28-.76 6.17-5.33 2.01-5.31-2.16 0-5.41-5.02-5.75-11.173-.32-6.13 1.92-12.3 9.88-11.97 9.34.36 9.25 18.603 8.24 19.313-2.99 2.07-6.83 6.09-7.24 6.77-2.97 4.97-8.93 6.2-11.11 8.38-4.16 4.16-5 8.86-1.89 10.66 10.69 6.13 7.21 12.96 22.16 13.59 9.81.38 17.2-1.53 23.88-3.57 5.21-1.57 21.92-5.14 25.45-11.28 1.53-2.6 3.45-2.69 4.73-1.95 2.24 1.3 2.72 5.64-3.05 7.19-8.27 2.25-16.61 6.65-23.93 9.58-7.3 2.96-9.63 4.1-16.52 5.36-15.51 2.78-26.97-5.6-16.56 4.46 3.45 3.36 6.77 5.45 15.7 5.09 19.55-.78 41.45-24.25 43.61-13.74.45 2.15-6.19 5.08-11.37 7.66-18.33 9.02-31.23 26.82-42.97 20.66-10.5-5.54-20.94-31.58-20.76-19.91.29 17.99-23.72 34-12.67 54.48-7.16 1.95-23.48 36.38-25.82 54.3-1.28 10.16.98 22.91-1.46 30.04-3.527 10.29-19.567-9.82-14.447-34.47.92-4.33.14-5.25-1.02-3.16-6.52 11.53-2.94 27.6 2.21 38.88 2.25 4.88 7.51 7.04 11.41 11.38 8.397 9.4 40.567 33.26 46.397 38.98 7.06 6.94 5.08 22.87-9.94 24.39 7.7 14.53 15.2 15.9 15.09 39.65 8.71-4.68 5.2-14.91 1.56-21.65-2.55-4.61-5.88-6.7-5.15-7.78.54-.81 5.02-4.67 7.72-1.65 7.93 8.89 22.9 10.48 39.01 8.48 16.07-2.05 33.31-7.67 41.28-20.48 3.74-6.02 6.44-8.15 8.17-7.09 1.71 1.07 2.45 5.32 2.27 12.14-.2 7.58-3.37 15.45-5.35 21.74-2.22 7.13-2.9 12.18 4.04 12.45 2.06-13.17 5.69-26.13 6.73-39.24 1.17-14.91-9.63-42.66 2.01-56.49zM154.84 97.957c-.54 2.933-.33 4.763 1.71 4.763.33 0 .68-.1.81-.81.98-5.843-2.04-10.083-3.27-10.423-2.87-.72-2.51 3.38-1.02 3.06.91-.19 2.13 1.31 1.77 3.41zm53.06-8.03c-2.94.28-2.1 1.74-.64 2.16 1.92.57 3.72 3.82 4.13 7.37 0 .32 2.46-.52 2.46-1.29.18-5.67-4.67-8.35-5.95-8.24z"/></svg>
